X:611
%%etbk:tnset id:356,pos:3,rep:3x,ant:
%%etbk:wsite http://thesession.org/tunes/1480
%%etbk:pldat 2016-09-04T14:52,2014-12-14T15:45,2014-12-04T19:17,2014-12-01T19:05,2014-11-24T14:39,2014-11-10T18:23,2014-11-09T14:55,2014-10-19T15:19,2014-10-12T15:13,2014-10-11T15:24,2014-10-10T16:36,2014-10-09T10:59,2014-10-05T15:28,2014-10-03T15:55,2014-09-30T11:11,2014-09-25T19:03,2014-09-24T16:31
T: Old Time Wedding, The
Z: Piano Box Version by Martin Fleischmann
H: Created 2014-09-22 /  Last Modified 2016-09-04
R: reel
M: 4/4
L: 1/8
K: Ador
B|: "am"!3!AG!1!EG AGE!2!G | !4!cdc!2!A "G"!1!G2 !1!G!3!B | "am"!2!A2 !3!cd !5!edc!1!G | !2!A2 cd !5!e2 !2!e!3!g |
"am" !4!aba!3!g !2!e!3!g!2!e!1!d |  !3!c!2!A!1!G!2!A "G"!3!c2 cd | !5!edc!2!A !1!G!2!E!5!cE |  "em"!1!D2 EG "am"A2 A2 :|   
g|:"am"!4!ag!2!eg agea | "G"!3!gede !3!g2gb | "am"!4!agea !3!g<!5!b !2!e!1!d | "em"!2!c!1!Acd !4!e2 !2!e!3!g |
"am"abag eged |  cAGA"G"c2 cd | "am"edcA GEcE |  "em"D2 EG "am"A2 A2 :|


